src/images_karasa_jaga_svg/cmd/lc_starshapes.doorplate.svg

<svg height="24" viewBox="0 0 24 24" width="24" xmlns="http://www.w3.org/2000/svg" xmlns:xlink="http://www.w3.org/1999/xlink"><linearGradient id="a" gradientUnits="userSpaceOnUse" x1="63.999996" x2="63.999996" y1="128.44554" y2="-.445538"><stop offset="0" stop-color="#fff"/><stop offset=".46428573" stop-color="#fff"/><stop offset=".8125" stop-color="#f1f1f1"/><stop offset=".90625" stop-color="#eaeaea"/><stop offset="1" stop-color="#dfdfdf"/></linearGradient><linearGradient id="b" gradientUnits="userSpaceOnUse" x1="5.818359" x2="122.17969" y1="64.000977" y2="64.000977"><stop offset="0" stop-color="#7c9fcf"/><stop offset=".5" stop-color="#7c9ece"/><stop offset="1" stop-color="#7b9dcf"/></linearGradient><g transform="matrix(.171875 0 0 .171875 1 1)"><path d="m40.162109 5.8203125a44.252121 44.252121 0 0 1 -34.3437496 34.3945315v47.447265a44.252121 44.252121 0 0 1 34.3183596 34.519531h47.679687a44.252121 44.252121 0 0 1 34.363284-34.474609v-47.447265a44.252121 44.252121 0 0 1 -34.298831-34.4394535z" fill="url(#b)"/><path d="m45.423405 11.638a46.986832 46.986832 0 0 1 -33.785401 33.763901v37.17469a46.986832 46.986832 0 0 1 33.763901 33.785409h37.17469a46.986832 46.986832 0 0 1 33.785405-33.763909v-37.174691a46.986832 46.986832 0 0 1 -33.763905-33.7854z" fill="url(#a)"/></g></svg>

<?xml version="1.0" encoding="UTF-8" standalone="no"?>
<svg
   xmlns:dc="http://purl.org/dc/elements/1.1/"
   xmlns:cc="http://creativecommons.org/ns#"
   xmlns:rdf="http://www.w3.org/1999/02/22-rdf-syntax-ns#"
   xmlns:svg="http://www.w3.org/2000/svg"
   xmlns="http://www.w3.org/2000/svg"
   xmlns:xlink="http://www.w3.org/1999/xlink"
   xmlns:sodipodi="http://sodipodi.sourceforge.net/DTD/sodipodi-0.dtd"
   xmlns:inkscape="http://www.inkscape.org/namespaces/inkscape"
   height="128"
   viewBox="0 0 128 128"
   width="128"
   version="1.1"
   id="svg2866"
   sodipodi:docname="lc_starshapes.doorplate.svg"
   inkscape:version="0.92.3 (unknown)"
   inkscape:export-filename="/home/rizmut/Dokumen/Rizmut/Github/libreoffice-style-karasa-jaga/build/images_karasa_jaga/cmd/lc_starshapes.doorplate.png"
   inkscape:export-xdpi="16.5"
   inkscape:export-ydpi="16.5">
  <metadata
     id="metadata2872">
    <rdf:RDF>
      <cc:Work
         rdf:about="">
        <dc:format>image/svg+xml</dc:format>
        <dc:type
           rdf:resource="http://purl.org/dc/dcmitype/StillImage" />
        <dc:title></dc:title>
      </cc:Work>
    </rdf:RDF>
  </metadata>
  <defs
     id="defs2870">
    <linearGradient
       id="linearGradient3369">
      <stop
         id="stop3372"
         offset="0"
         style="stop-color:#ffffff;stop-opacity:1;" />
      <stop
         style="stop-color:#ffffff;stop-opacity:1;"
         offset="0.46428573"
         id="stop3374" />
      <stop
         style="stop-color:#f1f1f1;stop-opacity:1;"
         offset="0.8125"
         id="stop3376" />
      <stop
         id="stop3378"
         offset="0.90625"
         style="stop-color:#eaeaea;stop-opacity:1;" />
      <stop
         id="stop3384"
         offset="1"
         style="stop-color:#dfdfdf;stop-opacity:1;" />
    </linearGradient>
    <linearGradient
       id="linearGradient7422">
      <stop
         style="stop-color:#7c9fcf;stop-opacity:1"
         offset="0"
         id="stop7424" />
      <stop
         id="stop5348"
         offset="0.5"
         style="stop-color:#7c9ece;stop-opacity:1" />
      <stop
         id="stop7426"
         offset="1"
         style="stop-color:#7b9dcf;stop-opacity:1" />
    </linearGradient>
    <linearGradient
       inkscape:collect="always"
       xlink:href="#linearGradient3369"
       id="linearGradient2203"
       x1="64"
       y1="128"
       x2="64"
       y2="0"
       gradientUnits="userSpaceOnUse"
       gradientTransform="matrix(1.0069615,0,0,1.0069615,-0.44553848,-0.44553846)" />
    <linearGradient
       inkscape:collect="always"
       xlink:href="#linearGradient7422"
       id="linearGradient873"
       x1="5.8183594"
       y1="64.000977"
       x2="122.17969"
       y2="64.000977"
       gradientUnits="userSpaceOnUse" />
  </defs>
  <sodipodi:namedview
     pagecolor="#ffffff"
     bordercolor="#666666"
     borderopacity="1"
     objecttolerance="10"
     gridtolerance="10"
     guidetolerance="10"
     inkscape:pageopacity="0"
     inkscape:pageshadow="2"
     inkscape:window-width="1366"
     inkscape:window-height="706"
     id="namedview2868"
     showgrid="true"
     inkscape:zoom="2.6074563"
     inkscape:cx="122.27619"
     inkscape:cy="82.902052"
     inkscape:window-x="0"
     inkscape:window-y="0"
     inkscape:window-maximized="1"
     inkscape:current-layer="svg2866"
     inkscape:snap-global="true">
    <inkscape:grid
       type="xygrid"
       id="grid13293"
       spacingx="5.8181"
       spacingy="5.8181"
       empspacing="1" />
  </sodipodi:namedview>
  <linearGradient
     id="a"
     gradientUnits="userSpaceOnUse"
     x1="1.789204"
     x2="1.376028"
     y1="56.265892"
     y2="104.97279">
    <stop
       offset="0"
       stop-color="#f9f9fa"
       id="stop2853" />
    <stop
       offset="1"
       stop-color="#f9f9fa"
       stop-opacity="0"
       id="stop2855" />
  </linearGradient>
  <path
     style="opacity:1;fill:url(#linearGradient873);fill-opacity:1.0;stroke:none;stroke-width:3.77952766;stroke-linecap:round;stroke-linejoin:round;stroke-miterlimit:4;stroke-dasharray:none;stroke-dashoffset:0;stroke-opacity:1"
     d="M 40.162109 5.8203125 A 44.252121 44.252121 0 0 1 5.8183594 40.214844 L 5.8183594 87.662109 A 44.252121 44.252121 0 0 1 40.136719 122.18164 L 87.816406 122.18164 A 44.252121 44.252121 0 0 1 122.17969 87.707031 L 122.17969 40.259766 A 44.252121 44.252121 0 0 1 87.880859 5.8203125 L 40.162109 5.8203125 z "
     id="rect842" />
  <path
     inkscape:connector-curvature="0"
     style="opacity:1;fill:url(#linearGradient2203);fill-opacity:1;stroke:none;stroke-width:4.00303698;stroke-linecap:round;stroke-linejoin:bevel;stroke-miterlimit:4;stroke-dasharray:none;stroke-dashoffset:0;stroke-opacity:0.73039216"
     d="M 45.423405,11.638 A 46.986832,46.986832 0 0 1 11.638004,45.401901 v 37.17469 A 46.986832,46.986832 0 0 1 45.401905,116.362 h 37.17469 A 46.986832,46.986832 0 0 1 116.362,82.598091 V 45.4234 A 46.986832,46.986832 0 0 1 82.598095,11.638 Z"
     id="rect817" />
</svg>
